X: 41925
T: Waiting For The Vaccine - Thanksgiving
R: jig
M: 6/8
K: Eminor
M:7/8
"A" A2 "A" A2 cAG|"A" AGAG cAG|"Em" cefg e3|"A" cA GG cAG|
"A" A2A2 cAG|"Em" AGAG cde|1 "Em" gfed "Bm"cBA|"Em" gz e "Em" dc B2:|2 "Em" gfed "Bm"cBA|"D" gzdd "A" ecB||
|:"G" A2A2g3|"D" f2de "D"f2g|"G" GAGA "Em" eee|"Bm" d2 ec "Bm" BAG|
"Em" EFEF cdc|"Em" B3G "Bm"ABc|"Bm" A2A2 "D" FGA|1 "D" G4 c3:|2 ~G3F G3||

